assets/illustrations/figma-logo.svg

<svg width="50" height="50" viewBox="0 0 50 50" fill="none" xmlns="http://www.w3.org/2000/svg">
<rect width="50" height="50" rx="12" fill="white"/>
<path d="M18.25 45.5433C21.976 45.5433 25 42.4755 25 38.6955V31.8477H18.25C14.524 31.8477 11.5 34.9155 11.5 38.6955C11.5 42.4755 14.524 45.5433 18.25 45.5433Z" fill="#0ACF83"/>
<path d="M11.5 25.0002C11.5 21.2202 14.524 18.1523 18.25 18.1523H25V31.848H18.25C14.524 31.848 11.5 28.7802 11.5 25.0002Z" fill="#A259FF"/>
<path d="M11.5002 11.3044C11.5002 7.52438 14.5242 4.45654 18.2503 4.45654H25.0003V18.1522H18.2503C14.5242 18.1522 11.5002 15.0844 11.5002 11.3044Z" fill="#F24E1E"/>
<path d="M25 4.45654H31.75C35.476 4.45654 38.5 7.52438 38.5 11.3044C38.5 15.0844 35.476 18.1522 31.75 18.1522H25V4.45654Z" fill="#FF7262"/>
<path d="M38.5 25.0002C38.5 28.7802 35.476 31.848 31.75 31.848C28.024 31.848 25 28.7802 25 25.0002C25 21.2202 28.024 18.1523 31.75 18.1523C35.476 18.1523 38.5 21.2202 38.5 25.0002Z" fill="#1ABCFE"/>
</svg>

<svg width="50" height="50" fill="none" xmlns="http://www.w3.org/2000/svg"><rect width="50" height="50" rx="12" fill="#fff"/><path d="M18.25 45.543c3.726 0 6.75-3.068 6.75-6.847v-6.848h-6.75c-3.726 0-6.75 3.068-6.75 6.848s3.024 6.847 6.75 6.847Z" fill="#0ACF83"/><path d="M11.5 25c0-3.78 3.024-6.848 6.75-6.848H25v13.696h-6.75c-3.726 0-6.75-3.068-6.75-6.848Z" fill="#A259FF"/><path d="M11.5 11.304c0-3.78 3.024-6.847 6.75-6.847H25v13.695h-6.75c-3.726 0-6.75-3.068-6.75-6.848Z" fill="#F24E1E"/><path d="M25 4.457h6.75c3.726 0 6.75 3.067 6.75 6.847 0 3.78-3.024 6.848-6.75 6.848H25V4.457Z" fill="#FF7262"/><path d="M38.5 25c0 3.78-3.024 6.848-6.75 6.848S25 28.78 25 25s3.024-6.848 6.75-6.848S38.5 21.22 38.5 25Z" fill="#1ABCFE"/></svg>
